X:106 
T:Lands of Scotland, The  
F:file ID: cre.5/106lands
B:CRE5.065 (CrÃÂÃÂÃÂÃÂ­ocha na hAlban)
Q:160
M:9/8
R:slip jig
K:G
FAA AFD FED|A2A AFD G2B|
A2A AFD FED|d2B cAF G3:|
G2c BdB c2A|B3 cAG F2D|
G2c BdB c2A|d2B cAF G3:|

%%%

